img/dark/f9.svg

<?xml version="1.0" encoding="UTF-8"?>
<svg width="24px" height="24px" viewBox="0 0 24 24" version="1.1" xmlns="http://www.w3.org/2000/svg" xmlns:xlink="http://www.w3.org/1999/xlink">
    <!-- Generator: Sketch 60.1 (88133) - https://sketch.com -->
    <title>f9_dark</title>
    <desc>Created with Sketch.</desc>
    <g id="f9_dark" stroke="none" stroke-width="1" fill="none" fill-rule="evenodd">
        <path d="M13.0832083,0.457453394 C13.7036004,-0.0400866793 14.3906602,-0.0871430228 15.0016032,0.104238937 L15.1411738,0.152540121 L15.3585922,0.235257823 L15.5190867,0.306610733 C15.9093064,0.11712406 16.3608388,0.0459767087 16.8261312,0.127092685 C17.5881783,0.259942911 18.0304074,0.630619937 18.6524031,1.35189689 C18.9546691,1.70240989 19.2090327,2.18153031 19.5422877,2.93701257 C19.7627147,3.43673128 19.8945287,3.96912273 19.9326592,4.50707804 L19.943894,4.77639385 L20,8.29773771 C19.999094,9.34013225 19.8877814,10.319404 19.6677303,11.2314478 C19.842613,11.4819779 19.9585398,11.7892678 19.9880685,12.1503549 L19.995506,12.3353679 L19.9952327,15.4806256 C19.9952327,20.186156 16.1112408,24 11.3210243,24 C10.6227603,24 9.93405952,23.9185699 9.26616546,23.7590798 L8.83391625,23.64487 C8.70336901,23.6053468 8.63305399,23.5628596 8.24632138,23.3291803 L7.9640892,23.0293752 L7.7457475,22.9788881 C7.47647906,22.9102761 7.21424541,22.8266888 6.96144538,22.7290527 L6.71187875,22.626768 L6.46913429,22.5153233 C6.36588757,22.4652636 6.26735663,22.4063108 6.17469724,22.3391567 C5.40951903,21.7845998 4.74110379,21.1098223 4.19778,20.343173 L4.14764185,20.2692222 L4.10067392,20.1933348 L4.0446611,20.0888936 L3.96285837,19.9568757 C3.44092468,19.0775795 3.12022883,18.0948925 3.02782837,17.0690169 L3.00698415,16.7600187 L3,16.4487905 C3,14.7313826 3.63695572,13.1060431 4.76920055,11.842709 C5.86100011,10.6245029 7.87667779,11.2156252 8.15071448,12.7717038 L8.17122161,12.9203874 C8.20656212,13.2715652 8.31166811,13.6074833 8.47919504,13.9140577 L8.63064535,14.1696179 L8.71103323,14.2765434 C9.38692112,15.1316668 10.3749512,15.6904186 11.4812957,15.8263776 L11.4492454,7.99571769 L11.4431191,7.88517409 C11.413759,7.66692006 11.2615551,7.57760047 10.6299994,7.43709704 C9.72033478,7.23470653 9.01414518,6.54037444 8.80192947,5.65782635 L8.7679987,5.49021708 L8.75873664,5.43409017 C8.56968006,4.28286469 9.32613482,3.1859362 10.4846068,2.9325733 C10.9274141,2.83572938 11.3385753,2.73546216 11.7175342,2.63281576 C11.7787618,2.53267421 11.8512913,2.44175726 11.93188,2.35126373 L11.9930779,2.28506678 L12.1850062,2.09849672 L12.2128996,2.05695006 L12.2249527,2.03413058 C12.2558477,1.9721204 12.2765278,1.91833238 12.2943559,1.85817515 L12.3737874,1.55526562 C12.4981416,1.12006806 12.6467327,0.807496674 13.0832083,0.457453394 Z M12.478064,17.7536297 C12.3196248,17.768438 12.1586046,17.7754956 11.9951052,17.7742241 C9.91653568,17.7742241 8.08040106,16.7522432 6.97677033,15.1907934 C6.96320871,15.171606 6.95329143,15.1510841 6.9470185,15.1292278 C6.55917676,14.5354158 6.3060848,13.8481875 6.23169155,13.1089438 C5.43325517,13.9998217 4.94899458,15.1687749 4.94899458,16.4487905 C4.94899458,17.4551164 5.24830785,18.3927966 5.76428572,19.180675 C5.77119072,19.2046691 5.78210727,19.2271982 5.79703539,19.2482623 C6.21881329,19.843406 6.73778461,20.3671614 7.33137314,20.79736 C7.90324158,21.0746338 8.70510016,21.2897728 9.58512837,21.2872916 L9.82696008,21.2811026 C10.3140434,21.2574661 10.8202775,21.1648776 11.3210243,20.9781044 C10.8532656,21.6226319 9.2391763,21.7663036 9.46914746,21.8308472 C9.95940217,21.9684418 10.472549,22.0527743 11.0016817,22.077063 L11.3210243,22.0843768 L11.5522273,22.0805475 C15.0826595,21.9634314 17.9230682,19.1743227 18.0423385,15.7076529 L18.0462382,15.4806256 L18.0465114,12.3352043 C17.6852468,14.1803638 15.6745941,17.2998046 12.7137742,17.7256766 L12.478064,17.7536297 Z M17.1656192,2.59049965 L16.9736843,2.37727557 C16.2094189,1.5716982 16.2895247,2.26326448 15.946092,2.81499029 C15.0525048,3.6008259 13.3731184,4.26331718 10.9079327,4.80246413 C10.7784166,4.83078986 10.6874226,4.93999021 10.679601,5.06520077 L10.682828,5.12883993 L10.691849,5.18350254 C10.7232455,5.37374942 10.8690448,5.52619259 11.0602969,5.56874411 C12.5480788,5.89973384 13.3257831,6.65189684 13.3934095,7.8252331 L13.431889,16.057204 C16.4149026,14.586063 17.9531011,12.1088631 18.0464843,8.62560412 L18.0510061,8.29610116 L17.9951406,4.80653277 C17.9903517,4.42529454 17.9084182,4.04880485 17.7541178,3.6989985 L17.5920536,3.34274385 C17.4134077,2.96375394 17.2712629,2.71300588 17.1656192,2.59049965 Z M14.4399054,1.93986535 C14.1833182,1.84260976 14.3139471,2.19698768 13.9753423,2.87660987 C13.6579003,3.51375567 13.2590485,3.63058543 13.4052624,3.68537208 L13.4558821,3.69908446 C13.5394694,3.71745742 13.99464,3.77063087 15.2739895,2.92494764 C15.1218434,2.33170268 14.8822799,2.13109686 14.6641416,2.02793868 L14.6052623,2.0019989 L14.4399054,1.93986535 Z" id="形状" fill="#FFFFFF"></path>
    </g>
</svg>

<svg xmlns="http://www.w3.org/2000/svg" width="24" height="24" xmlns:v="https://vecta.io/nano"><path d="M13.083.457c.62-.498 1.307-.545 1.918-.353l.14.048.217.083.16.07c.4-.19.842-.26 1.307-.18.762.133 1.204.504 1.826 1.225.302.35.557.83.9 1.585a4.72 4.72 0 0 1 .39 1.57l.01.27.056 3.52c-.001 1.042-.112 2.022-.332 2.934.175.25.29.558.32.92l.007.185v3.145c0 4.706-3.884 8.52-8.674 8.52a8.84 8.84 0 0 1-2.055-.241l-.432-.114c-.13-.04-.2-.082-.588-.316l-.282-.3-.218-.05a6.92 6.92 0 0 1-.784-.25l-.25-.102-.243-.11c-.103-.05-.202-.11-.294-.176a8.63 8.63 0 0 1-1.977-1.996l-.05-.074-.047-.076-.056-.104-.082-.132c-.522-.88-.843-1.862-.935-2.888l-.02-.31L3 16.45a6.88 6.88 0 0 1 1.769-4.606c1.092-1.218 3.107-.627 3.382.93l.02.15c.035.35.14.687.308.994l.15.256.08.107c.676.855 1.664 1.414 2.77 1.55l-.032-7.83-.006-.11c-.03-.218-.182-.308-.813-.448a2.41 2.41 0 0 1-1.828-1.779L8.768 5.5l-.01-.056c-.19-1.15.567-2.248 1.726-2.502a25.87 25.87 0 0 0 1.233-.3 1.97 1.97 0 0 1 .214-.282l.06-.066.192-.187.028-.042.012-.023a1.04 1.04 0 0 0 .069-.176l.08-.303c.124-.435.273-.748.71-1.098zm-.605 17.296c-.158.015-.32.022-.483.02a6.13 6.13 0 0 1-5.018-2.583c-.014-.02-.023-.04-.03-.062-.388-.594-.64-1.28-.715-2.02-.798.89-1.283 2.06-1.283 3.34a4.97 4.97 0 0 0 .815 2.732c.007.024.018.047.033.068a6.7 6.7 0 0 0 1.534 1.549c.572.277 1.374.492 2.254.5l.242-.006c.487-.024.993-.116 1.494-.303-.468.645-2.082.788-1.852.853.5.138 1.003.222 1.533.246l.32.007.23-.004c3.53-.117 6.37-2.906 6.5-6.373l.004-.227v-3.145c-.36 1.845-2.372 4.965-5.333 5.4l-.236.028zM17.166 2.6l-.192-.213c-.764-.806-.684-.114-1.028.438-.894.786-2.573 1.448-5.038 1.987a.29.29 0 0 0-.228.263l.003.064.01.055c.03.2.177.343.368.385 1.488.33 2.265 1.083 2.333 2.256l.038 8.232c2.983-1.47 4.52-3.948 4.615-7.432l.005-.33-.056-3.5a2.83 2.83 0 0 0-.241-1.108l-.162-.356c-.18-.38-.32-.63-.426-.752zm-2.726-.65c-.257-.097-.126.257-.465.937-.317.637-.716.754-.57.81l.05.014c.084.018.54.072 1.818-.774-.152-.593-.392-.794-.6-.897l-.06-.026-.165-.062z" fill="#fff" fill-rule="evenodd"/></svg>
